icons/blood_bag.svg

<svg width="48" height="48" viewBox="0 0 48 48" fill="none" xmlns="http://www.w3.org/2000/svg">
<path fill-rule="evenodd" clip-rule="evenodd" d="M18 40H23V44H25V40H30V38H34C36.2091 38 38 36.2092 38 34.0001V10.1143C38 7.90519 36.2091 6.11433 34 6.11433H28L26.868 4.94997C25.2973 3.33439 22.7027 3.33439 21.132 4.94997L20 6.11433H14C11.7909 6.11433 10 7.90519 10 10.1143V34C10 36.2092 11.7909 38 14 38H18V40ZM26.566 7.50849C26.9426 7.89581 27.4598 8.11433 28 8.11433H34C35.1046 8.11433 36 9.00976 36 10.1143V27.5387C35.7223 27.3233 35.4136 27.1103 35.075 26.9132C33.2502 25.8513 30.6106 25.2987 27.492 27.1387C24.9241 28.6537 22.5091 29.0636 19.8819 29.1195C18.7111 29.1444 17.5142 29.0991 16.2308 29.0505C16.0558 29.0438 15.879 29.0371 15.7006 29.0306C14.5326 28.9875 13.3018 28.9498 12 28.9709V10.1143C12 9.00976 12.8954 8.11433 14 8.11433H20C20.5402 8.11433 21.0574 7.89581 21.434 7.50849L22.566 6.34412C23.3514 5.53633 24.6486 5.53633 25.434 6.34412L26.566 7.50849ZM12 30.9712V34C12 35.1046 12.8954 36 14 36H34C35.1046 36 36 35.1046 36 34.0001V30.3293C35.9122 30.2185 35.7914 30.074 35.6393 29.9108C35.2728 29.5177 34.7408 29.0328 34.069 28.6418C32.775 27.8888 30.9146 27.4415 28.5083 28.8612C25.5511 30.6059 22.7661 31.0586 19.9245 31.119C18.69 31.1453 17.4296 31.0974 16.1532 31.049C15.9781 31.0423 15.8025 31.0357 15.6269 31.0292C14.454 30.9859 13.2549 30.9498 12 30.9712Z" fill="black"/>
</svg>

<svg
  xmlns="http://www.w3.org/2000/svg"
  width="24"
  height="24"
  viewBox="0 0 24 24"
  fill="none"
  stroke="currentColor"
  stroke-width="2"
  stroke-linecap="round"
  stroke-linejoin="round"
>
  <path
    fill-rule="evenodd"
    d="M18 40h5v4h2v-4h5v-2h4a4 4 0 0 0 4-4V10.114a4 4 0 0 0-4-4h-6L26.868 4.95a4 4 0 0 0-5.736 0L20 6.114h-6a4 4 0 0 0-4 4V34a4 4 0 0 0 4 4h4zm8.566-32.492A2 2 0 0 0 28 8.114h6a2 2 0 0 1 2 2V27.54a8.4 8.4 0 0 0-.925-.626c-1.825-1.062-4.464-1.614-7.583.226-2.568 1.515-4.983 1.925-7.61 1.98-1.17.025-2.368-.02-3.651-.069l-.53-.02A69 69 0 0 0 12 28.97V10.115a2 2 0 0 1 2-2h6a2 2 0 0 0 1.434-.606l1.132-1.164a2 2 0 0 1 2.868 0zM12 30.971V34a2 2 0 0 0 2 2h20a2 2 0 0 0 2-2v-3.67a7.004 7.004 0 0 0-1.931-1.687c-1.294-.754-3.154-1.201-5.56.218-2.958 1.745-5.743 2.198-8.585 2.258-1.234.026-2.494-.022-3.77-.07l-.527-.02A66 66 0 0 0 12 30.971"
    clip-rule="evenodd"
  />
</svg>
